!!!OTL: Alima 
!!!ARE: Asia, China,ÿQinghai Xunhua
!! I, 237
!!!SCT: C2081
!!!YEM: Copyright 1995, estate of Helmut Schaffrath.
**kern
*ICvox
*Ivox
!! 5/82+3 metric grouping
!! Mixed meters:  3/8; 2/4
*M3/8
*k[b-e-a-]
*E-:
{8b-
8cc
16ee-
16ff
16ee-
16cc
16ee-
[16ff
=1
4.ff]
8cc}
=2
{8b-
8cc
8ee-
=3
4ee-
16ff
16ee-
=4
8cc
4r}
=5
{8.cc
16ee-
8g
=6
4f
8f
=7
4b-
8cc
=8
[4.b-
=9
4b-]}
{8cc
=10
8b-
8cc
8cc
=11
4ee-
16ff
16ee-
=12
8cc
8ff
8gg
=13
8.cc
16ee-
16g
16g
=14
16f
16f
8f
8f
8f
8f
=15
4b-
8cc
=16
[4.b-
=17
4b-]}
{8cc
=18
8b-
8cc
8cc
=19
4ee-
8ff
=20
8cc
8ff
8gg
=21
8.cc
16ee-
8g
=22
4.f
=23
4b-
16cc
16ee-
=24
4b-}
{16r
16b-
=25
4.cc
=26
4r
24cc
24cc
24cc
=27
8.cc
16ee-
8g
=28
4f
16r
16f
=29
8b-
8a-
8b-
=30
4b-
8cc
=31
[4.b-
=32
4.b-]}
==
!!!AGN: Xiaodiao, Qingge
!! Salazu
!!!ONB: ESAC (Essen Associative Code) Database: SENGANSU
!!!AMT: irregular
!!!AIN: vox
!!!EED: Helmut Schaffrath
!!!EEV: 1.0
*-
!!!ONB: Tied note syntax fixed by Craig Sapp, 2004/05/03/
